img/thermometer.svg

<svg width="16" height="26" viewBox="0 0 16 26" fill="none" xmlns="http://www.w3.org/2000/svg">
<path d="M9.59048 4.11894C9.59048 3.02653 9.16905 1.97886 8.41891 1.20641C7.66877 0.433958 6.65136 0 5.59049 0C4.52963 0 3.51222 0.433958 2.76208 1.20641C2.01193 1.97886 1.59051 3.02653 1.59051 4.11894V16.1073C0.565049 17.185 -0.00642404 18.6355 5.44874e-05 20.1443C-0.00269526 21.1106 0.227501 22.0625 0.669998 22.9146C1.1125 23.7667 1.75346 24.4924 2.5354 25.0266C3.31735 25.5608 4.21583 25.8868 5.15027 25.9754C6.0847 26.064 7.02588 25.9124 7.88939 25.5341C8.7529 25.1559 9.51175 24.5629 10.0979 23.8083C10.684 23.0536 11.0791 22.161 11.2477 21.2105C11.4163 20.2599 11.3531 19.2811 11.0639 18.3618C10.7747 17.4426 10.2684 16.6116 9.59048 15.9435V4.11894ZM9.73362 20.1443C9.74166 20.8589 9.57219 21.5637 9.24131 22.1919C8.91043 22.82 8.42912 23.3507 7.84308 23.7334C7.25704 24.1162 6.58572 24.3383 5.89286 24.3788C5.19999 24.4192 4.50858 24.2767 3.88428 23.9646C3.25997 23.6525 2.72349 23.1813 2.32577 22.5957C1.92805 22.0101 1.68229 21.3295 1.61182 20.6186C1.54136 19.9077 1.64853 19.19 1.92315 18.5337C2.19778 17.8774 2.63075 17.3043 3.18096 16.8688V4.11894C3.18096 3.46089 3.43482 2.82979 3.88669 2.36447C4.33857 1.89916 4.95144 1.63775 5.59049 1.63775C6.22954 1.63775 6.84242 1.89916 7.29429 2.36447C7.74617 2.82979 8.00003 3.46089 8.00003 4.11894V16.7132C8.53672 17.0983 8.97478 17.6116 9.2767 18.2092C9.57862 18.8067 9.7354 19.4707 9.73362 20.1443Z" fill="#323232"/>
<path d="M6.45729 17.5812V4.17626C6.45729 3.95908 6.37351 3.7508 6.22437 3.59723C6.07524 3.44366 5.87297 3.35739 5.66206 3.35739C5.45116 3.35739 5.24889 3.44366 5.09975 3.59723C4.95062 3.7508 4.86684 3.95908 4.86684 4.17626V17.5812C4.33625 17.7744 3.88906 18.1545 3.60431 18.6544C3.31956 19.1542 3.21558 19.7416 3.31074 20.3128C3.40591 20.8839 3.69409 21.4021 4.12437 21.7756C4.55464 22.1491 5.09929 22.354 5.66206 22.354C6.22483 22.354 6.76949 22.1491 7.19976 21.7756C7.63003 21.4021 7.91822 20.8839 8.01338 20.3128C8.10855 19.7416 8.00457 19.1542 7.71981 18.6544C7.43506 18.1545 6.98787 17.7744 6.45729 17.5812Z" fill="#323232"/>
<path d="M16 3.2018H11.2286V4.83955H16V3.2018Z" fill="#323232"/>
<path d="M16 6.4773H11.2286V8.11505H16V6.4773Z" fill="#323232"/>
<path d="M16 9.7528H11.2286V11.3905H16V9.7528Z" fill="#323232"/>
<path d="M16 13.0283H11.2286V14.666H16V13.0283Z" fill="#323232"/>
</svg>

<svg width="16" height="26" fill="none" xmlns="http://www.w3.org/2000/svg"><path d="M9.59 4.119c0-1.092-.42-2.14-1.171-2.913A3.942 3.942 0 005.59 0C4.53 0 3.512.434 2.762 1.206A4.182 4.182 0 001.591 4.12v11.988A5.822 5.822 0 000 20.144a5.978 5.978 0 00.669 2.77 5.78 5.78 0 001.865 2.113c.782.534 1.68.86 2.615.948a5.522 5.522 0 002.74-.44 5.69 5.69 0 002.208-1.727 5.922 5.922 0 001.15-2.598c.168-.95.105-1.929-.184-2.848a5.865 5.865 0 00-1.474-2.418V4.119zm.144 16.025a4.293 4.293 0 01-.493 2.048 4.146 4.146 0 01-1.398 1.541 3.972 3.972 0 01-3.959.231 4.106 4.106 0 01-1.558-1.368 4.305 4.305 0 01-.403-4.062 4.178 4.178 0 011.258-1.665V4.119c0-.658.254-1.29.706-1.755a2.375 2.375 0 011.703-.726c.64 0 1.252.261 1.704.726A2.52 2.52 0 018 4.12v12.594c.537.385.975.899 1.277 1.496.302.598.458 1.262.457 1.935z" fill="#323232"/><path d="M6.457 17.581V4.176a.831.831 0 00-.233-.579.784.784 0 00-.562-.24.784.784 0 00-.562.24.831.831 0 00-.233.58V17.58c-.53.193-.978.573-1.263 1.073a2.519 2.519 0 00-.293 1.659c.095.57.383 1.09.813 1.463.43.373.975.578 1.538.578.563 0 1.107-.205 1.538-.578.43-.374.718-.892.813-1.463a2.518 2.518 0 00-.293-1.659c-.285-.5-.732-.88-1.263-1.073zM16 3.202h-4.771V4.84H16V3.202zM16 6.477h-4.771v1.638H16V6.477zM16 9.753h-4.771v1.637H16V9.753zM16 13.028h-4.771v1.638H16v-1.638z" fill="#323232"/></svg>
